static/assets/img/icons/theme/code/lock-circle.svg

<svg height="24" viewBox="0 0 24 24" width="24" xmlns="http://www.w3.org/2000/svg"><g fill="none" fill-rule="evenodd"><path d="m0 0h24v24h-24z" opacity="0"/><g fill="#000"><circle cx="12" cy="12" opacity=".3" r="10"/><path d="m14.5 11c.5522847 0 1 .4477153 1 1v3c0 .5522847-.4477153 1-1 1h-5c-.55228475 0-1-.4477153-1-1v-3c0-.5522847.44771525-1 1-1v-.5c0-1.38071187 1.1192881-2.5 2.5-2.5s2.5 1.11928813 2.5 2.5zm-2.5-2c-.8284271 0-1.5.67157288-1.5 1.5v.5h3v-.5c0-.82842712-.6715729-1.5-1.5-1.5z"/></g></g></svg>

<svg width="24px" height="24px" viewBox="0 0 24 24" version="1.1" xmlns="http://www.w3.org/2000/svg" xmlns:xlink="http://www.w3.org/1999/xlink">
    <title>Icon For Lock-circle</title>
    <g stroke="none" stroke-width="1" fill="none" fill-rule="evenodd">
        <rect opacity="0" x="0" y="0" width="24" height="24"></rect>
        <circle fill="#000000" opacity="0.3" cx="12" cy="12" r="10"></circle>
        <path d="M14.5,11 C15.0522847,11 15.5,11.4477153 15.5,12 L15.5,15 C15.5,15.5522847 15.0522847,16 14.5,16 L9.5,16 C8.94771525,16 8.5,15.5522847 8.5,15 L8.5,12 C8.5,11.4477153 8.94771525,11 9.5,11 L9.5,10.5 C9.5,9.11928813 10.6192881,8 12,8 C13.3807119,8 14.5,9.11928813 14.5,10.5 L14.5,11 Z M12,9 C11.1715729,9 10.5,9.67157288 10.5,10.5 L10.5,11 L13.5,11 L13.5,10.5 C13.5,9.67157288 12.8284271,9 12,9 Z" fill="#000000"></path>
    </g>
</svg>
